X:2210
T:German Schottische
O:england
C:traditionell
S: Gedächnisniederschrift(S.W.) gelernt von Gene, einem älteren Geigenspieler aus England
N:please mail errors to: simon.wascher@chello.at
M:2/4
L:1/16
K:G
Bc|d2Bd c2Ac|B2G2 GFG2|A2F2 FEF2|B2G2 GFG2|
d2Bd c2Ac|B2G2 GFG2|A2F2 FEF2|G2B2G2:|
|:z2|G2Bd g3f|f2e2e4|F2Ad f3e|e2d2d4|
G2Bd g3f|f2e2e4|fga2 e3f|g2g2g2:|


